public/logos/cemetery/saga-dollar.svg

<svg width="180" height="181" viewBox="0 0 180 181" fill="none" xmlns="http://www.w3.org/2000/svg">
<g clip-path="url(#clip0_834_12900)">
<path d="M0.916168 90.496C0.916168 40.7966 40.8016 0.5 89.9939 0.5C139.194 0.5 179.079 40.7966 179.079 90.496C179.079 140.203 139.194 180.492 89.9939 180.492C40.8016 180.5 0.916168 140.203 0.916168 90.496Z" fill="#BAF6AE"/>
<path d="M130.86 145.934H92.8291V137.202C82.7451 144.479 73.9576 147.39 65.17 147.39C47.4509 147.39 32.4689 131.234 32.4689 108.966C32.4689 77.82 56.2384 58.6084 92.541 58.6084C92.6851 58.6084 92.6851 58.6084 92.8291 58.6084V39.6878L130.86 28.3354V145.934ZM71.0764 97.7594C71.0764 116.534 79.7199 128.615 92.8291 130.652V74.0359L82.8891 66.1766C76.1184 72.726 71.0764 83.2051 71.0764 97.7594Z" fill="#191919"/>
</g>
<defs>
<clipPath id="clip0_834_12900">
<rect width="178.163" height="180" fill="white" transform="translate(0.918365 0.5)"/>
</clipPath>
</defs>
</svg>

<svg xmlns="http://www.w3.org/2000/svg" width="180" height="181" fill="none" viewBox="0 0 180 181"><g clip-path="url(#a)"><path fill="#baf6ae" d="M.916 90.496C.916 40.796 40.802.5 89.994.5c49.2 0 89.085 40.297 89.085 89.996 0 49.707-39.885 89.996-89.085 89.996C40.802 180.5.916 140.203.916 90.496"/><path fill="#191919" d="M130.86 145.934H92.83v-8.732c-10.085 7.277-18.872 10.188-27.66 10.188-17.72 0-32.701-16.156-32.701-38.424 0-31.146 23.77-50.358 60.072-50.358h.288v-18.92l38.031-11.353zM71.076 97.759c0 18.775 8.644 30.856 21.753 32.893V74.036l-9.94-7.86c-6.77 6.55-11.813 17.03-11.813 31.583"/></g><defs><clipPath id="a"><path fill="#fff" d="M.918.5h178.163v180H.918z"/></clipPath></defs></svg>
